X:4
T:Rorey Oh Moor. WHG.004
T:Rory O’Moore,aka. WHG.004
R:jig
S:W.H.Giles MS,Bampton,Oxfordshire,1839p5
O:England
H:donated by Mrs W.R.Kettlewell to VWML,Apr 1927.
A:Bampton, Oxfordshire
N:No TS in MS. No repeat marked in B music, or at start of A.
N:Bar 6 has a bar-line in the middle, in the MS.
N:Bar 8 the second note is a crotchet in the MS.
N:A second part is on p61, WHG.056.
Z:PJHeadford – VMP 2009
M:6/8
L:1/8
Q:3/8=120
K:G
|:e|dGG BGG|dGG BGG|Gge dBB|FAA ABc|
dGG BGG|dGG BGG|ded def|gGG G2:|
d|gfe dcB|cBA G2F|EFG ABc|edd d2f|
gfe dcB|cBA G2F|EGG Bcc|ded d2|]

